Newaita/actions/16/window-new.svg

<?xml version="1.0" encoding="UTF-8"?>
<svg xmlns="http://www.w3.org/2000/svg" xmlns:xlink="http://www.w3.org/1999/xlink" width="16pt" height="16pt" viewBox="0 0 16 16" version="1.1">
<defs>
<filter id="alpha" filterUnits="objectBoundingBox" x="0%" y="0%" width="100%" height="100%">
  <feColorMatrix type="matrix" in="SourceGraphic" values="0 0 0 0 1 0 0 0 0 1 0 0 0 0 1 0 0 0 1 0"/>
</filter>
<mask id="mask0">
  <g filter="url(#alpha)">
<rect x="0" y="0" width="16" height="16" style="fill:rgb(0%,0%,0%);fill-opacity:0.988235;stroke:none;"/>
  </g>
</mask>
<clipPath id="clip1">
  <rect x="0" y="0" width="16" height="16"/>
</clipPath>
<g id="surface5" clip-path="url(#clip1)">
<path style=" stroke:none;fill-rule:nonzero;fill:rgb(25.882354%,25.882354%,25.882354%);fill-opacity:1;" d="M 0.660156 4.09375 L 0.660156 14.015625 C 0.660156 14.75 1.25 15.339844 1.984375 15.339844 L 13.890625 15.339844 C 14.625 15.339844 15.214844 14.75 15.214844 14.015625 L 15.214844 4.09375 Z M 1.652344 5.085938 L 14.222656 5.085938 L 14.222656 13.6875 C 14.222656 14.050781 13.925781 14.347656 13.5625 14.347656 L 2.316406 14.347656 C 1.949219 14.347656 1.652344 14.050781 1.652344 13.6875 Z M 1.652344 5.085938 "/>
</g>
<mask id="mask1">
  <g filter="url(#alpha)">
<rect x="0" y="0" width="16" height="16" style="fill:rgb(0%,0%,0%);fill-opacity:0.988235;stroke:none;"/>
  </g>
</mask>
<clipPath id="clip2">
  <rect x="0" y="0" width="16" height="16"/>
</clipPath>
<g id="surface8" clip-path="url(#clip2)">
<path style=" stroke:none;fill-rule:nonzero;fill:rgb(25.882354%,25.882354%,25.882354%);fill-opacity:1;" d="M 1.984375 0.785156 C 1.25 0.785156 0.660156 1.375 0.660156 2.109375 L 0.660156 4.09375 L 1.652344 4.09375 L 1.652344 2.441406 C 1.652344 2.074219 1.949219 1.777344 2.316406 1.777344 L 13.5625 1.777344 C 13.925781 1.777344 14.222656 2.074219 14.222656 2.441406 L 14.222656 4.09375 L 15.214844 4.09375 L 15.214844 2.109375 C 15.214844 1.375 14.625 0.785156 13.890625 0.785156 Z M 1.984375 0.785156 "/>
</g>
</defs>
<g id="surface1">
<use xlink:href="#surface5" mask="url(#mask0)"/>
<use xlink:href="#surface8" mask="url(#mask1)"/>
<path style=" stroke:none;fill-rule:nonzero;fill:rgb(14.901961%,65.098041%,60.392159%);fill-opacity:1;" d="M 8.433594 7.566406 L 8.433594 11.867188 C 8.433594 12.140625 8.230469 12.363281 7.980469 12.363281 L 7.894531 12.363281 C 7.644531 12.363281 7.441406 12.140625 7.441406 11.867188 L 7.441406 7.566406 C 7.441406 7.292969 7.644531 7.070312 7.894531 7.070312 L 7.980469 7.070312 C 8.230469 7.070312 8.433594 7.292969 8.433594 7.566406 Z M 8.433594 7.566406 "/>
<path style=" stroke:none;fill-rule:nonzero;fill:rgb(14.901961%,65.098041%,60.392159%);fill-opacity:1;" d="M 5.789062 9.222656 L 10.089844 9.222656 C 10.363281 9.222656 10.585938 9.425781 10.585938 9.675781 L 10.585938 9.761719 C 10.585938 10.011719 10.363281 10.214844 10.089844 10.214844 L 5.789062 10.214844 C 5.515625 10.214844 5.292969 10.011719 5.292969 9.761719 L 5.292969 9.675781 C 5.292969 9.425781 5.515625 9.222656 5.789062 9.222656 Z M 5.789062 9.222656 "/>
</g>
</svg>

<svg xmlns="http://www.w3.org/2000/svg" xmlns:xlink="http://www.w3.org/1999/xlink" width="16pt" height="16pt" viewBox="0 0 16 16"><defs><filter id="a" filterUnits="objectBoundingBox" x="0%" y="0%" width="100%" height="100%"><feColorMatrix in="SourceGraphic" values="0 0 0 0 1 0 0 0 0 1 0 0 0 0 1 0 0 0 1 0"/></filter><mask id="e"><path fill-opacity=".988" d="M0 0h16v16H0z" filter="url(#a)"/></mask><clipPath id="b"><path d="M0 0h16v16H0z"/></clipPath><g id="d" clip-path="url(#b)"><path d="M.66 4.094v9.922c0 .734.59 1.324 1.324 1.324h11.907a1.32 1.32 0 0 0 1.324-1.324V4.094zm.992.992h12.57v8.602c0 .363-.296.66-.66.66H2.316a.663.663 0 0 1-.664-.66zm0 0" fill="#424242"/></g><mask id="g"><path fill-opacity=".988" d="M0 0h16v16H0z" filter="url(#a)"/></mask><clipPath id="c"><path d="M0 0h16v16H0z"/></clipPath><g id="f" clip-path="url(#c)"><path d="M1.984.785A1.32 1.32 0 0 0 .66 2.11v1.985h.992V2.44c0-.367.297-.664.664-.664h11.246c.364 0 .66.297.66.664v1.653h.993V2.109A1.32 1.32 0 0 0 13.89.785zm0 0" fill="#424242"/></g></defs><use xlink:href="#d" mask="url(#e)"/><use xlink:href="#f" mask="url(#g)"/><path d="M8.434 7.566v4.301c0 .274-.204.496-.454.496h-.085c-.25 0-.454-.222-.454-.496v-4.3c0-.274.204-.497.454-.497h.085c.25 0 .454.223.454.496zm0 0" fill="#26a69a"/><path d="M5.79 9.223h4.3c.273 0 .496.203.496.453v.086c0 .25-.223.453-.496.453h-4.3c-.274 0-.497-.203-.497-.453v-.086c0-.25.223-.453.496-.453zm0 0" fill="#26a69a"/></svg>
